source/img/svg/icon-lider.svg

<svg width="30" height="30" viewBox="0 0 30 30" fill="none" xmlns="http://www.w3.org/2000/svg">
<path d="M13.3586 6.10239C13.7561 5.52614 14.6074 5.52614 15.0049 6.10239L15.4293 6.71766C15.5587 6.90529 15.7484 7.04307 15.9668 7.10818L16.6831 7.3217C17.354 7.52167 17.6171 8.33132 17.1919 8.88744L16.7378 9.48121C16.5994 9.66228 16.527 9.88522 16.5325 10.1131L16.5508 10.8603C16.568 11.5602 15.8792 12.0605 15.2189 11.828L14.5139 11.5797C14.2989 11.504 14.0645 11.504 13.8495 11.5797L13.1445 11.828C12.4842 12.0605 11.7955 11.5602 11.8126 10.8603L11.8309 10.1131C11.8365 9.88522 11.7641 9.66228 11.6256 9.48121L11.1716 8.88744C10.7464 8.33132 11.0095 7.52167 11.6803 7.3217L12.3967 7.10818C12.6151 7.04307 12.8047 6.90529 12.9342 6.71766L13.3586 6.10239Z" stroke="#EB5757" stroke-linejoin="round"/>
<path d="M19.5339 8.5797L21.5483 8.85247" stroke="#EB5757" stroke-linecap="round"/>
<path d="M18.2723 11.7035L19.6999 13.1506" stroke="#EB5757" stroke-linecap="round"/>
<path d="M18.2723 5.72878L19.6999 4.28162" stroke="#EB5757" stroke-linecap="round"/>
<path d="M8.46805 8.5797L6.45364 8.85247" stroke="#EB5757" stroke-linecap="round"/>
<path d="M9.72961 11.7035L8.30204 13.1506" stroke="#EB5757" stroke-linecap="round"/>
<path d="M9.72961 5.72878L8.30204 4.28162" stroke="#EB5757" stroke-linecap="round"/>
<rect x="6" y="15.8182" width="5.45455" height="8.18182" stroke="#EB5757" stroke-linejoin="round"/>
<rect x="11.4541" y="14" width="5.45455" height="10" stroke="#EB5757" stroke-linejoin="round"/>
<rect x="16.9092" y="17.6364" width="5.45455" height="6.36364" stroke="#EB5757" stroke-linejoin="round"/>
<path d="M14.7461 18.5455L13.7478 18.5438C13.4309 18.5438 13.2725 18.4744 13.2725 18.3357C13.2725 18.1795 13.4493 18.1015 13.8031 18.1015C13.8366 18.1015 13.8735 18.102 13.9137 18.1032V16.5525C13.7679 16.6224 13.6731 16.6574 13.6296 16.6574C13.5357 16.6574 13.4535 16.6341 13.3831 16.5875C13.3144 16.5408 13.28 16.4867 13.28 16.4249C13.28 16.3608 13.3362 16.2949 13.4485 16.2273L13.7327 16.084L14.0395 15.9126C14.1652 15.8497 14.2868 15.8182 14.4041 15.8182C14.555 15.8182 14.6304 15.8812 14.6304 16.007C14.6304 16.1457 14.6221 16.341 14.6053 16.5927C14.5885 16.8445 14.5801 17.204 14.5801 17.6714V18.0945H14.7461C14.8434 18.0945 14.9247 18.116 14.9901 18.1591C15.0571 18.2023 15.0906 18.2559 15.0906 18.32C15.0906 18.3841 15.0571 18.4377 14.9901 18.4808C14.9247 18.5239 14.8434 18.5455 14.7461 18.5455Z" fill="#EB5757"/>
<path d="M9.39721 21.2709C9.36745 21.2709 9.32101 21.2662 9.2579 21.2567C9.19599 21.2461 9.15134 21.2408 9.12395 21.2408L8.59886 21.239C8.55361 21.239 8.48515 21.2449 8.39346 21.2567C8.30178 21.2674 8.23272 21.2727 8.18628 21.2727C8.17318 21.2727 8.15413 21.2703 8.12913 21.2656C8.10412 21.2609 8.08507 21.2585 8.07198 21.2585C7.96481 21.2585 7.89218 21.2154 7.85408 21.1291C7.83027 21.0748 7.81836 20.9909 7.81836 20.8775C7.81836 20.6566 7.86777 20.4717 7.9666 20.3228C8.0428 20.2082 8.16604 20.0936 8.33631 19.979C8.49705 19.8739 8.6572 19.7693 8.81675 19.6654C9.00488 19.5295 9.09895 19.3753 9.09895 19.2029C9.09895 19.158 9.06144 19.1137 8.98643 19.07C8.91141 19.0251 8.83818 19.0026 8.76674 19.0026C8.64053 19.0026 8.50658 19.0587 8.36489 19.171C8.22438 19.282 8.12794 19.3375 8.07555 19.3375C8.01244 19.3375 7.95707 19.3222 7.90945 19.2915C7.84991 19.2537 7.82015 19.2011 7.82015 19.1337C7.82015 19.0617 7.84991 18.9997 7.90945 18.9477C8.05352 18.8213 8.17914 18.7291 8.2863 18.6712C8.44109 18.5874 8.60124 18.5454 8.76674 18.5454C8.97273 18.5454 9.15848 18.5992 9.32399 18.7067C9.5133 18.8295 9.60796 18.9902 9.60796 19.1887C9.60796 19.3895 9.56153 19.5602 9.46865 19.7008C9.39602 19.8131 9.28112 19.9223 9.12395 20.0287C8.97511 20.122 8.82628 20.2147 8.67744 20.3069C8.45121 20.4534 8.32976 20.6205 8.31309 20.8084C8.37858 20.8001 8.47502 20.7907 8.60243 20.78C8.85604 20.767 9.03762 20.7605 9.14717 20.7605C9.24957 20.7605 9.35078 20.7824 9.45079 20.8261C9.57463 20.8805 9.63654 20.9502 9.63654 21.0352C9.63654 21.0967 9.61451 21.1504 9.57046 21.1965C9.52402 21.2461 9.46627 21.2709 9.39721 21.2709Z" fill="#EB5757"/>
<path d="M20.1774 20.6968C20.423 20.8298 20.5457 21.0426 20.5457 21.3352C20.5457 21.5712 20.4557 21.7713 20.2758 21.9355C20.0958 22.0997 19.8771 22.1819 19.6196 22.1819C19.4278 22.1819 19.2549 22.1443 19.1012 22.0691C18.9236 21.9812 18.8038 21.8563 18.7418 21.6944C18.7323 21.6701 18.7275 21.644 18.7275 21.6163C18.7275 21.5515 18.7544 21.4977 18.808 21.4549C18.858 21.4156 18.9153 21.396 18.9796 21.396C19.0547 21.396 19.1149 21.4249 19.1602 21.4827C19.2365 21.5822 19.2806 21.6365 19.2925 21.6458C19.3664 21.7036 19.4754 21.7325 19.6196 21.7325C19.7329 21.7325 19.8318 21.6996 19.9164 21.6336C20.0022 21.5677 20.0451 21.4885 20.0451 21.396C20.0451 21.108 19.8455 20.9449 19.4462 20.9067C19.271 20.8905 19.1834 20.8194 19.1834 20.6933C19.1834 20.5973 19.2514 20.5273 19.3872 20.4834C19.516 20.4556 19.6441 20.4273 19.7716 20.3984C19.8527 20.3741 19.9134 20.3423 19.954 20.303C19.9945 20.2636 20.0153 20.2168 20.0165 20.1624C20.0213 19.9901 19.8825 19.9039 19.6 19.9039C19.507 19.9039 19.4051 19.9386 19.2943 20.008C19.1834 20.0763 19.1077 20.1104 19.0672 20.1104C18.9993 20.1104 18.9415 20.0867 18.8938 20.0393C18.8461 19.9918 18.8223 19.9381 18.8223 19.8779C18.8223 19.7796 18.9224 19.6819 19.1226 19.5847C19.3014 19.498 19.4468 19.4546 19.5589 19.4546C19.8294 19.4546 20.0469 19.5113 20.2114 19.6246C20.3914 19.7495 20.4814 19.9276 20.4814 20.159C20.4814 20.2862 20.4557 20.3949 20.4045 20.4851C20.3544 20.5742 20.2787 20.6447 20.1774 20.6968Z" fill="#EB5757"/>
</svg>

<svg width="30" height="30" fill="none" xmlns="http://www.w3.org/2000/svg"><path d="M13.359 6.102a1 1 0 011.646 0l.424.616a1 1 0 00.538.39l.716.214a1 1 0 01.509 1.565l-.454.594a1 1 0 00-.206.632l.019.747a1 1 0 01-1.332.968l-.705-.248a1 1 0 00-.664 0l-.705.248a1 1 0 01-1.332-.968l.018-.747a1 1 0 00-.205-.632l-.454-.594a1 1 0 01.508-1.565l.717-.214a1 1 0 00.537-.39l.425-.616z" stroke="#EB5757" stroke-linejoin="round"/><path d="M19.534 8.58l2.014.272m-3.276 2.852L19.7 13.15m-1.428-7.421L19.7 4.282M8.468 8.58l-2.014.272m3.276 2.852L8.302 13.15M9.73 5.729L8.302 4.282" stroke="#EB5757" stroke-linecap="round"/><path stroke="#EB5757" stroke-linejoin="round" d="M6 15.818h5.455V24H6z"/><path stroke="#EB5757" stroke-linejoin="round" d="M11.454 14h5.455v10h-5.455zm5.455 3.636h5.455V24h-5.455z"/><path d="M14.746 18.546l-.998-.002c-.317 0-.475-.07-.475-.208 0-.156.176-.234.53-.234l.11.001v-1.55c-.145.07-.24.104-.283.104a.436.436 0 01-.247-.07c-.069-.046-.103-.1-.103-.162 0-.064.056-.13.168-.198l.285-.143.306-.171a.814.814 0 01.365-.095c.151 0 .226.063.226.189 0 .139-.008.334-.025.586-.017.252-.025.611-.025 1.078v.424h.166c.097 0 .179.021.244.064.067.043.1.097.1.161s-.033.118-.1.16a.434.434 0 01-.244.066zM9.397 21.27c-.03 0-.076-.004-.14-.013a.904.904 0 00-.133-.016l-.525-.002a1.76 1.76 0 00-.206.018 1.95 1.95 0 01-.207.016.337.337 0 01-.057-.007.338.338 0 00-.057-.007c-.107 0-.18-.044-.218-.13a.664.664 0 01-.036-.252c0-.22.05-.405.149-.554a1.3 1.3 0 01.37-.344l.48-.314c.188-.136.282-.29.282-.462 0-.045-.038-.09-.113-.133a.427.427 0 00-.22-.067c-.125 0-.26.056-.401.168-.14.111-.237.166-.29.166a.3.3 0 01-.166-.046.177.177 0 01-.089-.157.24.24 0 01.09-.186 2.16 2.16 0 01.376-.277.997.997 0 01.48-.126c.207 0 .392.054.558.162.19.122.284.283.284.482 0 .2-.046.371-.14.512a1.208 1.208 0 01-.344.328l-.447.278c-.226.146-.347.314-.364.501.066-.008.162-.017.29-.028.253-.013.435-.02.544-.02.103 0 .204.022.304.066.124.055.186.124.186.21a.226.226 0 01-.067.16.228.228 0 01-.173.075zm10.78-.573c.246.133.369.346.369.638 0 .236-.09.436-.27.6a.939.939 0 01-.656.247 1.17 1.17 0 01-.519-.113.692.692 0 01-.36-.375.213.213 0 01-.014-.078c0-.064.027-.118.081-.161a.27.27 0 01.172-.059c.075 0 .135.029.18.087.076.1.12.154.133.163.073.058.182.087.327.087a.468.468 0 00.296-.1c.086-.065.13-.145.13-.237 0-.288-.2-.451-.6-.49-.175-.015-.263-.087-.263-.213 0-.096.068-.166.204-.21.129-.027.257-.056.385-.085a.442.442 0 00.182-.095.196.196 0 00.063-.14c.004-.173-.134-.26-.417-.26a.586.586 0 00-.306.105c-.11.068-.186.102-.227.102a.237.237 0 01-.173-.07.222.222 0 01-.072-.162c0-.098.1-.196.3-.293.18-.087.325-.13.437-.13.27 0 .488.056.652.17.18.125.27.303.27.534a.65.65 0 01-.077.326.53.53 0 01-.227.212z" fill="#EB5757"/></svg>
